X:33
T:The Downfall of Paris
S:John Moore's Book 2
Z:Transcribed by Taz Tarry 04/2021
%%VWML: Moore1-4494-p28-0
F:http://www.vwml.org/record/Moore2/4494/p28
R:Quick Step
N: Bar 4 of the C part is a quaver beat short in the ms
N:The tune is on pages 27 and 28 in the ms.
M:2/4
L:1/8
K:D
!pp!"_Allegretto".d(d/e/) .d(d/e/)|.d(d/e/) (g/f/e/d/)|.e(e/f/) .e(e/f/)|.e(e/f/) (a/g/f/e/)|
.f(f/g/) .f(f/g/)|.f(f/g/) (b/a/g/f/)|.e(e/f/) ee|e2 (d/c/B/A/)|
!ff!.d(d/e/) .d(d/e/)|.d(d/e/) (g/f/e/d/)|.e(e/f/) .e(e/f/)|.e(e/f/) (a/g/f/e/)|
.f(f/g/) ag| .f(f/g/) ag|.f(f/d/) .e(e/c/)|d2 d z:|
a4|.a.f(ba)|.g(g/f/) .g(g/f/)|.g(g/f/) g2|
!p!"_Dol"g2 aa|.f.e(ag)|!ff!.f(f/e/) .f(f/e/)| .f(f/e/) f2|
!pp!.d(d/e/) .d(d/e/) |.d(d/e/) (g/f/e/d/)|.e(e/f/) .e(e/f/)|.e(e/f/) (a/g/f/e/)|
!ff!.f(f/g/) ag|.f(f/g/) ag|f(f/d/) .e(e/c/)|d2 d z:|
!pp!(a/b/c'/d'/ c'/b/a/g/)| (f/g/a/b/ a/g/f/e/)|!ff!'dd/d/ 'ee/e/|ffe|
!pp!(a/b/c'/d'/ c'/b/a/g/)| (f/g/a/b/ a/g/f/e/)|!ff!de/e/ fe|ddd z:|
"_Dol".c.d.e.f |.g.f.e.d|.c.d.e.f |.g.f.e. z|
!pp!(a/b/c'/d'/ c'/b/a/g/)| (f/g/a/b/ a/g/f/e/)|de/e/ fe|dd d z:|

